polaris-icons/icons/newicons/EnterMajor.svg

<svg width="20" height="20" viewBox="0 0 20 20" fill="none" xmlns="http://www.w3.org/2000/svg">
<path d="M9.25 2C7.73122 2 6.5 3.23122 6.5 4.75V4.92241C6.5 5.33663 6.83579 5.67241 7.25 5.67241C7.66421 5.67241 8 5.33663 8 4.92241V4.75C8 4.05964 8.55964 3.5 9.25 3.5H13.25C13.9404 3.5 14.5 4.05964 14.5 4.75V15.25C14.5 15.9404 13.9404 16.5 13.25 16.5H9.25C8.55964 16.5 8 15.9404 8 15.25V15.0776C8 14.6634 7.66421 14.3276 7.25 14.3276C6.83579 14.3276 6.5 14.6634 6.5 15.0776V15.25C6.5 16.7688 7.73122 18 9.25 18H13.25C14.7688 18 16 16.7688 16 15.25V4.75C16 3.23122 14.7688 2 13.25 2H9.25Z" fill="black"/>
<path d="M4 9.375C3.58579 9.375 3.25 9.71078 3.25 10.125C3.25 10.5392 3.58579 10.875 4 10.875H9.50635L8.45553 11.9842C8.17066 12.2849 8.18349 12.7596 8.48419 13.0445C8.78489 13.3293 9.25959 13.3165 9.54446 13.0158L11.7945 10.6408C12.0685 10.3515 12.0685 9.89846 11.7945 9.60919L9.54446 7.23419C9.25959 6.93349 8.78489 6.92066 8.48419 7.20553C8.18349 7.49041 8.17066 7.96511 8.45553 8.26581L9.50635 9.375H4Z" fill="black"/>
</svg>

<svg viewBox="0 0 20 20" fill="none" xmlns="http://www.w3.org/2000/svg"><path d="M9.25 2a2.75 2.75 0 0 0-2.75 2.75v.172a.75.75 0 1 0 1.5 0v-.172c0-.69.56-1.25 1.25-1.25h4c.69 0 1.25.56 1.25 1.25v10.5c0 .69-.56 1.25-1.25 1.25h-4c-.69 0-1.25-.56-1.25-1.25v-.172a.75.75 0 0 0-1.5 0v.172a2.75 2.75 0 0 0 2.75 2.75h4a2.75 2.75 0 0 0 2.75-2.75v-10.5a2.75 2.75 0 0 0-2.75-2.75h-4Z" fill="#000"/><path d="M4 9.375a.75.75 0 1 0 0 1.5h5.506l-1.05 1.11a.75.75 0 0 0 1.088 1.03l2.25-2.374a.75.75 0 0 0 0-1.032l-2.25-2.375a.75.75 0 1 0-1.088 1.032l1.05 1.109h-5.506Z" fill="#000"/></svg>
